images/ICONOS/VALORES/COMPROMISO ICON.svg

<svg width="52" height="40" viewBox="0 0 52 40" fill="none" xmlns="http://www.w3.org/2000/svg">
<path d="M52 12.305C50.8056 13.3381 49.659 14.4295 48.4036 15.3877C47.1746 16.3261 46.2813 17.4372 45.6801 18.8394C45.0391 20.3353 44.2507 21.7721 43.5466 23.2443C43.4703 23.4052 43.4591 23.6597 43.5354 23.8156C44.7217 26.2204 43.2262 28.7416 40.4721 28.9587C40.4396 28.9616 40.408 28.9755 40.3378 28.9942C40.113 31.1128 38.9125 32.3295 36.6895 32.5466C36.4606 34.8211 34.959 35.9489 33.0433 36.0901C32.8856 39.3207 29.0287 40.7969 26.6135 38.4593C25.59 39.6187 24.3366 40.271 22.723 39.8921C21.1186 39.5151 20.2478 38.4514 19.9364 36.8597C19.618 36.8597 19.2986 36.8903 18.9862 36.8548C17.2709 36.6565 16.0226 35.4279 15.8263 33.7583C15.7988 33.5225 15.7988 33.3389 15.4549 33.2955C13.3398 33.0242 12.125 31.6239 12.1759 29.5616C12.178 29.4965 12.1759 29.4313 12.1759 29.3376C12.065 29.307 11.9582 29.2695 11.8473 29.2468C9.26623 28.7209 8.10947 25.8513 9.65995 23.7772C9.8675 23.4999 9.87157 23.338 9.65893 23.0647C8.29362 21.3093 6.96289 19.5291 5.59046 17.7796C5.2883 17.3938 4.87829 17.0829 4.49678 16.7612C3.19352 15.664 1.87908 14.5785 0.572768 13.4852C-0.140411 12.8882 -0.182123 12.4402 0.41711 11.7198C3.50891 8.00269 6.60173 4.28751 9.69658 0.573311C10.2612 -0.104599 10.6651 -0.164791 11.4414 0.311818C13.0275 1.28576 14.6013 2.27845 16.1996 3.23166C16.6656 3.50993 17.1824 3.73886 17.7074 3.88885C19.2792 4.33684 20.8633 4.74438 22.4494 5.14402C22.6945 5.20619 22.9876 5.20027 23.2338 5.13514C24.6194 4.77004 26.0061 4.40394 27.3745 3.98457C28.2413 3.71913 29.1081 3.6096 30.0146 3.62341C31.9099 3.65104 33.8053 3.64019 35.7007 3.62242C35.953 3.62045 36.2368 3.54052 36.4515 3.41126C38.1291 2.39488 39.7935 1.35681 41.4631 0.326619C42.2831 -0.178606 42.6798 -0.11348 43.273 0.632517C46.0504 4.12864 48.8258 7.62772 51.6022 11.1248C51.7334 11.2896 51.8657 11.4534 51.998 11.6172C52 11.8452 52 12.0751 52 12.305ZM25.3448 31.8035C25.3723 31.8223 25.3977 31.8539 25.4272 31.8588C27.6258 32.219 29.0206 34.5764 28.0693 36.7058C28.0286 36.7976 28.0541 36.9772 28.1222 37.0472C28.5689 37.5031 29.1081 37.7399 29.7663 37.5742C30.9414 37.2781 31.327 35.9253 30.4693 35.0312C29.7205 34.2507 28.9239 33.5126 28.1558 32.7498C27.7478 32.3443 27.6644 31.915 27.8913 31.5016C28.2219 30.8967 29.0124 30.803 29.5649 31.3279C30.3381 32.0631 31.0919 32.8169 31.8529 33.5649C32.2904 33.9951 32.8113 34.1777 33.4217 34.0257C34.6182 33.7277 34.9895 32.3512 34.0932 31.4493C32.7899 30.1379 31.4552 28.8561 30.1346 27.5614C29.9678 27.3986 29.7928 27.2407 29.6473 27.0601C29.3217 26.6575 29.3543 26.1069 29.7053 25.7586C30.0715 25.3945 30.6575 25.3649 31.0869 25.6984C31.2181 25.8 31.3341 25.9224 31.4521 26.0388C32.7849 27.3453 34.1186 28.6508 35.4483 29.9603C35.9072 30.4122 36.4342 30.6539 37.0934 30.4753C38.3123 30.1448 38.6358 28.7732 37.7039 27.8555C35.6152 25.7971 33.5164 23.7485 31.4226 21.6951C31.2924 21.5668 31.094 21.4425 31.0645 21.2915C31.0004 20.959 30.8986 20.5406 31.0482 20.2889C31.1978 20.0363 31.6281 19.8281 31.9445 19.8153C32.2243 19.8034 32.5732 20.0334 32.7961 20.2485C34.9163 22.3 37.012 24.3751 39.1251 26.4335C39.8536 27.143 40.8231 27.1677 41.4671 26.5273C42.0999 25.8977 42.0562 24.986 41.341 24.2913C37.4312 20.4942 33.5194 16.6991 29.5964 12.9148C29.4265 12.751 29.1396 12.6405 28.8975 12.6198C27.6848 12.5132 26.467 12.4629 25.2543 12.3533C24.8941 12.3208 24.7151 12.4096 24.5411 12.7175C23.7852 14.0535 23.013 15.3817 22.2184 16.6971C21.377 18.0904 19.7706 18.7427 18.2252 18.3568C15.8792 17.7707 14.7936 15.2949 15.9911 13.199C17.1631 11.1485 18.3717 9.11872 19.5631 7.07907C19.6618 6.91132 19.7523 6.73864 19.8673 6.53142C18.9903 6.29558 18.1581 6.08441 17.336 5.84265C16.9983 5.74299 16.7958 5.81404 16.5679 6.0854C14.6268 8.40332 12.6673 10.7064 10.715 13.0155C9.63248 14.2953 8.55101 15.5761 7.45225 16.8767C8.7728 18.6016 10.0761 20.3047 11.3824 22.0099C13.3764 20.4004 16.6483 21.0241 17.393 24.0663C18.4979 23.9094 19.5387 24.0722 20.4339 24.7856C21.3262 25.4961 21.7219 26.4385 21.7667 27.5279C24.2582 27.7015 25.6846 29.534 25.3448 31.8035ZM41.7845 22.151C41.9646 21.8165 42.0369 21.6911 42.0999 21.5619C42.8884 19.9653 43.6636 18.3628 44.4704 16.7751C44.6342 16.4534 44.5701 16.2501 44.3595 15.9916C41.6319 12.6435 38.9115 9.29141 36.2002 5.93146C36.0008 5.68378 35.7983 5.59497 35.4799 5.59695C33.4665 5.61076 31.4521 5.59793 29.4377 5.60977C29.105 5.61175 28.7611 5.65418 28.4417 5.742C26.3133 6.32814 24.1931 6.9429 22.0617 7.52016C21.6823 7.62278 21.4595 7.8083 21.2784 8.13294C20.7798 9.02695 20.2498 9.90419 19.734 10.7893C19.0757 11.9162 18.4063 13.0372 17.7664 14.1739C17.2669 15.062 17.6209 16.0291 18.5386 16.3754C19.2904 16.6596 20.0636 16.3685 20.5113 15.6087C21.4177 14.0713 22.3212 12.5329 23.2093 10.9847C23.4881 10.4982 23.8676 10.2782 24.4465 10.3206C26.1506 10.4469 27.8547 10.5594 29.5608 10.661C30.0471 10.6906 30.4123 10.8811 30.7552 11.2146C34.3007 14.6703 37.8595 18.1131 41.4081 21.5658C41.5506 21.704 41.6269 21.9013 41.7845 22.151ZM10.8757 2.30213C8.0464 5.70154 5.24964 9.06149 2.4427 12.4353C3.6605 13.4496 4.83557 14.4285 6.03505 15.4281C9.03528 11.8836 11.9999 8.38062 14.992 4.84404C13.6053 3.98753 12.2695 3.16259 10.8757 2.30213ZM49.5837 11.8195C47.0525 8.63126 44.5508 5.47952 42.0389 2.31594C40.6451 3.17739 39.2981 4.01022 37.9216 4.86082C40.6319 8.20399 43.3015 11.4968 45.9924 14.8163C47.2041 13.8049 48.369 12.8339 49.5837 11.8195ZM15.9097 31.3476C16.0602 31.2914 16.4255 31.2559 16.6371 31.0615C17.5853 30.1971 18.5253 29.3198 19.3962 28.3834C19.9324 27.8061 19.792 26.8924 19.2172 26.3773C18.6535 25.8721 17.7521 25.8198 17.1794 26.3398C16.278 27.1578 15.404 28.0055 14.5606 28.8797C14.1181 29.3386 14.0855 29.9257 14.3612 30.4911C14.6308 31.0437 15.1121 31.3161 15.9097 31.3476ZM17.742 33.3478C17.8651 34.0376 18.1632 34.5063 18.7573 34.7668C19.3718 35.0362 19.9649 34.9503 20.4502 34.5004C21.2814 33.7297 22.0994 32.9433 22.8919 32.1351C23.5339 31.4809 23.5084 30.5582 22.8838 29.9681C22.2622 29.38 21.3313 29.3998 20.6557 30.0382C19.8683 30.7832 19.0757 31.5243 18.332 32.3088C18.0655 32.5939 17.9353 32.9985 17.742 33.3478ZM26.3215 35.0411C26.3164 34.6958 26.056 34.2458 25.5178 33.9665C24.9613 33.6784 24.3783 33.6853 23.9022 34.0741C23.3243 34.5458 22.78 35.0678 22.2927 35.6273C21.8776 36.1039 21.8796 36.694 22.1879 37.2406C22.488 37.7735 22.9794 38.0291 23.6092 38.0113C24.5747 37.9827 26.3194 36.2262 26.3215 35.0411ZM13.7996 23.043C13.4934 23.1624 13.1302 23.2157 12.8942 23.413C12.3336 23.8798 11.7985 24.387 11.3173 24.9307C10.8279 25.4833 10.9113 26.3319 11.4251 26.8628C11.9348 27.3887 12.826 27.5348 13.4039 27.0749C14.0123 26.5914 14.5749 26.0369 15.0734 25.4458C15.462 24.986 15.4539 24.4057 15.1528 23.8729C14.8699 23.3736 14.4162 23.1269 13.7996 23.043Z" fill="url(#paint0_linear_1_2807)"/>
<defs>
<linearGradient id="paint0_linear_1_2807" x1="0" y1="40.0009" x2="52" y2="40.0009" gradientUnits="userSpaceOnUse">
<stop stop-color="#1723FF"/>
<stop offset="1" stop-color="#30E35E"/>
</linearGradient>
</defs>
</svg>

<svg xmlns="http://www.w3.org/2000/svg" width="52" height="40" fill="none"><path fill="url(#a)" d="M52 12.305c-1.194 1.033-2.341 2.125-3.596 3.083-1.23.938-2.123 2.05-2.724 3.451-.64 1.496-1.43 2.933-2.133 4.405-.077.161-.088.416-.012.572 1.187 2.404-.309 4.926-3.063 5.143-.032.003-.064.017-.134.035-.225 2.119-1.425 3.336-3.648 3.553-.23 2.274-1.731 3.402-3.647 3.543-.157 3.23-4.014 4.707-6.43 2.37-1.023 1.159-2.276 1.811-3.89 1.432-1.604-.377-2.475-1.44-2.787-3.032-.318 0-.637.03-.95-.005-1.715-.198-2.963-1.427-3.16-3.097-.027-.236-.027-.42-.371-.463-2.115-.27-3.33-1.671-3.28-3.733.003-.066 0-.13 0-.224-.11-.031-.217-.069-.328-.091-2.58-.526-3.738-3.396-2.187-5.47.207-.277.212-.439-.001-.712-1.365-1.756-2.696-3.536-4.069-5.285-.302-.386-.712-.697-1.093-1.019-1.303-1.097-2.618-2.182-3.924-3.276-.713-.597-.755-1.045-.156-1.765C3.51 8.003 6.602 4.288 9.697.573c.564-.678.968-.738 1.744-.261 1.586.974 3.16 1.966 4.759 2.92.466.278.982.507 1.507.657 1.572.448 3.156.855 4.742 1.255.245.062.539.056.785-.009 1.385-.365 2.772-.731 4.14-1.15a8.444 8.444 0 0 1 2.64-.362c1.896.028 3.791.017 5.687 0 .252-.003.536-.082.75-.212 1.678-1.016 3.343-2.054 5.012-3.084.82-.506 1.217-.44 1.81.306 2.777 3.496 5.553 6.995 8.33 10.492.13.165.263.328.395.492.002.228.002.458.002.688ZM25.345 31.803c.027.02.053.05.082.056 2.199.36 3.594 2.717 2.642 4.847-.04.092-.015.271.053.341.447.456.986.693 1.644.527 1.175-.296 1.561-1.649.703-2.543-.748-.78-1.545-1.518-2.313-2.281-.408-.406-.492-.835-.265-1.248.33-.605 1.121-.699 1.674-.174.773.735 1.527 1.489 2.288 2.237.437.43.958.613 1.569.46 1.196-.297 1.568-1.674.671-2.576-1.303-1.311-2.638-2.593-3.958-3.888-.167-.162-.342-.32-.488-.5a.961.961 0 0 1 .058-1.302c.367-.364.953-.394 1.382-.06.131.101.247.223.365.34 1.333 1.306 2.667 2.612 3.996 3.921.46.452.986.694 1.645.515 1.22-.33 1.543-1.702.61-2.62-2.088-2.058-4.187-4.107-6.28-6.16-.13-.128-.329-.253-.358-.404-.065-.332-.166-.75-.017-1.002.15-.253.58-.46.897-.474.28-.012.628.218.851.433 2.12 2.052 4.216 4.127 6.33 6.185.728.71 1.697.735 2.341.094.633-.63.59-1.541-.126-2.236-3.91-3.797-7.822-7.592-11.745-11.376-.17-.164-.456-.274-.698-.295-1.213-.107-2.431-.157-3.644-.267-.36-.032-.539.057-.713.364a161.564 161.564 0 0 1-2.323 3.98 3.617 3.617 0 0 1-3.993 1.66c-2.346-.586-3.431-3.062-2.234-5.158 1.172-2.05 2.38-4.08 3.572-6.12.099-.168.19-.34.304-.548-.877-.235-1.709-.447-2.531-.688-.338-.1-.54-.029-.768.242-1.941 2.318-3.9 4.621-5.853 6.93-1.083 1.28-2.164 2.561-3.263 3.862l3.93 5.133c1.994-1.61 5.266-.986 6.011 2.056 1.105-.157 2.146.006 3.04.72.893.71 1.289 1.652 1.334 2.742 2.491.174 3.918 2.006 3.578 4.276Zm16.44-9.652c.18-.334.252-.46.315-.59.788-1.596 1.564-3.198 2.37-4.786.164-.322.1-.525-.11-.783a2779.1 2779.1 0 0 1-8.16-10.06c-.2-.248-.402-.337-.72-.335-2.013.014-4.028 0-6.042.013a3.891 3.891 0 0 0-.996.132c-2.129.586-4.249 1.2-6.38 1.778-.38.103-.603.288-.784.613-.498.894-1.028 1.771-1.544 2.656-.658 1.127-1.328 2.248-1.968 3.385-.5.888-.145 1.855.773 2.201.751.285 1.525-.006 1.972-.766.907-1.538 1.81-3.076 2.698-4.624.28-.487.659-.707 1.238-.664 1.704.126 3.408.238 5.114.34.486.03.851.22 1.194.554 3.546 3.455 7.104 6.898 10.653 10.35.143.139.219.336.377.586ZM10.875 2.302 2.444 12.435l3.592 2.993 8.957-10.584-4.116-2.542Zm38.709 9.518-7.545-9.504-4.117 2.545 8.07 9.955 3.592-2.997ZM15.91 31.347c.15-.057.515-.092.727-.287.948-.864 1.888-1.741 2.76-2.678.535-.577.395-1.49-.18-2.006-.563-.505-1.465-.557-2.038-.037a54.974 54.974 0 0 0-2.618 2.54c-.443.459-.476 1.046-.2 1.611.27.553.751.825 1.549.857Zm1.832 2c.123.69.421 1.158 1.015 1.419.615.27 1.208.183 1.693-.267a71.53 71.53 0 0 0 2.442-2.365c.642-.654.616-1.577-.008-2.167-.622-.588-1.553-.568-2.228.07-.788.745-1.58 1.486-2.324 2.27-.267.286-.397.69-.59 1.04Zm8.58 1.693c-.006-.345-.266-.795-.804-1.074-.557-.289-1.14-.282-1.616.107a13.25 13.25 0 0 0-1.61 1.553c-.414.477-.412 1.067-.104 1.614.3.532.791.788 1.421.77.966-.028 2.71-1.785 2.712-2.97ZM13.8 23.043c-.307.12-.67.173-.906.37-.56.467-1.095.974-1.577 1.518-.49.552-.406 1.4.108 1.932.51.526 1.401.672 1.979.212a11.824 11.824 0 0 0 1.67-1.63c.388-.459.38-1.04.079-1.572-.283-.5-.737-.746-1.353-.83Z"/><defs><linearGradient id="a" x1="0" x2="52" y1="40.001" y2="40.001" gradientUnits="userSpaceOnUse"><stop stop-color="#1723FF"/><stop offset="1" stop-color="#30E35E"/></linearGradient></defs></svg>
